packages/dnb-eufemia/assets/icons/cloud_upload.svg

<svg width="16" height="16" viewBox="0 0 16 16" fill="none" xmlns="http://www.w3.org/2000/svg">
<path d="M3.55864 4.83003L3.69783 5.567L3.55864 4.83003ZM12.2866 6.04127L11.5447 5.93182C11.5114 6.1575 11.5826 6.38607 11.7382 6.55288C11.8939 6.71969 12.1169 6.8066 12.3444 6.78904L12.2866 6.04127ZM5.34541 5.8472C5.70455 6.05359 6.16299 5.92975 6.36938 5.57062C6.57576 5.21148 6.45193 4.75304 6.09279 4.54666L5.34541 5.8472ZM7.17135 14.8427C7.17135 15.2569 7.50713 15.5927 7.92135 15.5927C8.33556 15.5927 8.67135 15.2569 8.67135 14.8427H7.17135ZM9.27866 11.9124C9.57155 12.2052 10.0464 12.2052 10.3393 11.9124C10.6322 11.6195 10.6322 11.1446 10.3393 10.8517L9.27866 11.9124ZM7.92135 9.49438L8.45168 8.96405C8.15879 8.67116 7.68391 8.67116 7.39102 8.96405L7.92135 9.49438ZM5.50338 10.8517C5.21048 11.1446 5.21048 11.6195 5.50338 11.9124C5.79627 12.2052 6.27114 12.2052 6.56404 11.9124L5.50338 10.8517ZM2.72668 11.5506C3.11241 11.7015 3.54747 11.5112 3.69842 11.1255C3.84937 10.7397 3.65905 10.3047 3.27332 10.1537L2.72668 11.5506ZM12.8468 10.2801C12.4413 10.3647 12.1812 10.7621 12.2658 11.1675C12.3505 11.573 12.7478 11.8331 13.1532 11.7485L12.8468 10.2801ZM1.75 7.92135C1.75 6.75176 2.58876 5.77646 3.69783 5.567L3.41946 4.09305C1.61496 4.43386 0.25 6.0174 0.25 7.92135H1.75ZM4.30378 4.91534C4.52656 2.96949 6.26769 1.75 7.92135 1.75V0.25C5.62861 0.25 3.13636 1.92489 2.81351 4.74471L4.30378 4.91534ZM7.92135 1.75C10.3377 1.75 11.84 3.92951 11.5447 5.93182L13.0286 6.15071C13.4409 3.35588 11.3642 0.25 7.92135 0.25V1.75ZM12.3444 6.78904C13.3501 6.71137 14.25 7.54102 14.25 8.55056H15.75C15.75 6.66312 14.102 5.14883 12.2289 5.29349L12.3444 6.78904ZM3.69783 5.567C4.25811 5.46118 4.85097 5.56306 5.34541 5.8472L6.09279 4.54666C5.2908 4.08578 4.33448 3.92024 3.41946 4.09305L3.69783 5.567ZM10.3393 10.8517L8.45168 8.96405L7.39102 10.0247L9.27866 11.9124L10.3393 10.8517ZM7.39102 8.96405L5.50338 10.8517L6.56404 11.9124L8.45168 10.0247L7.39102 8.96405ZM8.67135 14.8427V9.49438H7.17135V14.8427H8.67135ZM3.27332 10.1537C2.38034 9.80427 1.75 8.9355 1.75 7.92135H0.25C0.25 9.57349 1.27807 10.9837 2.72668 11.5506L3.27332 10.1537ZM14.25 8.55056C14.25 9.40111 13.6482 10.1128 12.8468 10.2801L13.1532 11.7485C14.6359 11.439 15.75 10.1257 15.75 8.55056H14.25Z" fill="black"/>
</svg>

<svg width="16" height="16" viewBox="0 0 16 16" fill="none" xmlns="http://www.w3.org/2000/svg"><path d="m3.559 4.83.139.737-.14-.737Zm8.728 1.211-.742-.11a.75.75 0 0 0 .8.858l-.058-.748Zm-6.942-.194a.75.75 0 0 0 .748-1.3l-.748 1.3Zm1.826 8.996a.75.75 0 0 0 1.5 0h-1.5Zm2.108-2.93a.75.75 0 0 0 1.06-1.061l-1.06 1.06ZM7.92 9.493l.53-.53a.75.75 0 0 0-1.06 0l.53.53Zm-2.418 1.358a.75.75 0 0 0 1.061 1.06l-1.06-1.06Zm-2.776.699a.75.75 0 0 0 .546-1.397l-.546 1.397Zm10.12-1.27a.75.75 0 0 0 .306 1.467l-.306-1.468ZM1.75 7.92c0-1.17.839-2.145 1.948-2.354L3.42 4.093A3.897 3.897 0 0 0 .25 7.921h1.5Zm2.554-3.006C4.527 2.97 6.268 1.75 7.92 1.75V.25c-2.29 0-4.784 1.675-5.106 4.495l1.49.17ZM7.92 1.75c2.417 0 3.92 2.18 3.624 4.182l1.484.219C13.44 3.356 11.364.25 7.92.25v1.5Zm4.423 5.039c1.006-.078 1.906.752 1.906 1.762h1.5c0-1.888-1.648-3.402-3.521-3.258l.115 1.496ZM3.698 5.567a2.428 2.428 0 0 1 1.647.28l.748-1.3a3.928 3.928 0 0 0-2.673-.454l.278 1.474Zm6.641 5.285L8.452 8.964l-1.06 1.06 1.887 1.888 1.06-1.06ZM7.391 8.964l-1.888 1.888 1.061 1.06 1.888-1.887-1.06-1.061Zm1.28 5.879V9.494h-1.5v5.349h1.5Zm-5.398-4.69A2.397 2.397 0 0 1 1.75 7.922H.25a3.897 3.897 0 0 0 2.477 3.63l.546-1.397ZM14.25 8.552a1.77 1.77 0 0 1-1.403 1.73l.306 1.467a3.268 3.268 0 0 0 2.597-3.197h-1.5Z" fill="#000"/></svg>
